packages/sources/assets/src/assets/flag-vg.svg

<svg width="28" height="20" viewBox="0 0 28 20" fill="none" xmlns="http://www.w3.org/2000/svg">
<rect width="28" height="20" rx="2" fill="white"/>
<mask id="mask0_503_3734" style="mask-type:alpha" maskUnits="userSpaceOnUse" x="0" y="0" width="28" height="20">
<rect width="28" height="20" rx="2" fill="white"/>
</mask>
<g mask="url(#mask0_503_3734)">
<rect width="28" height="20" fill="#07319C"/>
<path fill-rule="evenodd" clip-rule="evenodd" d="M17.3333 9.99999C17.3333 8.90626 17.3333 7.61314 17.3333 6.66581C17.3333 5.92943 17.9303 5.33333 18.6667 5.33333H22.6667C23.403 5.33333 24 5.92943 24 6.66581C24 7.61314 24 8.90626 24 9.99999C24 13.3333 20.6667 14.6667 20.6667 14.6667C20.6667 14.6667 17.3333 13.3333 17.3333 9.99999Z" fill="#008339"/>
<mask id="mask1_503_3734" style="mask-type:alpha" maskUnits="userSpaceOnUse" x="17" y="5" width="7" height="10">
<path fill-rule="evenodd" clip-rule="evenodd" d="M17.3333 9.99999C17.3333 8.90626 17.3333 7.61314 17.3333 6.66581C17.3333 5.92943 17.9303 5.33333 18.6667 5.33333H22.6667C23.403 5.33333 24 5.92943 24 6.66581C24 7.61314 24 8.90626 24 9.99999C24 13.3333 20.6667 14.6667 20.6667 14.6667C20.6667 14.6667 17.3333 13.3333 17.3333 9.99999Z" fill="white"/>
</mask>
<g mask="url(#mask1_503_3734)">
<path fill-rule="evenodd" clip-rule="evenodd" d="M19.3333 7.99999C19.7015 7.99999 20 7.70151 20 7.33332C20 6.96513 19.7015 6.66666 19.3333 6.66666C18.9651 6.66666 18.6667 6.96513 18.6667 7.33332C18.6667 7.70151 18.9651 7.99999 19.3333 7.99999ZM19.3333 9.33332C19.7015 9.33332 20 9.03485 20 8.66666C20 8.29847 19.7015 7.99999 19.3333 7.99999C18.9651 7.99999 18.6667 8.29847 18.6667 8.66666C18.6667 9.03485 18.9651 9.33332 19.3333 9.33332ZM19.3333 10.6667C18.9651 10.6667 18.6667 10.3682 18.6667 9.99999C18.6667 9.6318 18.9651 9.33332 19.3333 9.33332C19.7015 9.33332 20 9.6318 20 9.99999C20 10.3682 19.7015 10.6667 19.3333 10.6667ZM19.3333 10.6667C19.7015 10.6667 20 10.9651 20 11.3333C20 11.7015 19.7015 12 19.3333 12C18.9651 12 18.6667 11.7015 18.6667 11.3333C18.6667 10.9651 18.9651 10.6667 19.3333 10.6667ZM22.6667 11.3333C22.6667 11.7015 22.3682 12 22 12C21.6318 12 21.3333 11.7015 21.3333 11.3333C21.3333 10.9651 21.6318 10.6667 22 10.6667C22.3682 10.6667 22.6667 10.9651 22.6667 11.3333ZM22 9.33332C22.3682 9.33332 22.6667 9.6318 22.6667 9.99999C22.6667 10.3682 22.3682 10.6667 22 10.6667C21.6318 10.6667 21.3333 10.3682 21.3333 9.99999C21.3333 9.6318 21.6318 9.33332 22 9.33332ZM22 7.99999C21.6318 7.99999 21.3333 8.29847 21.3333 8.66666C21.3333 9.03485 21.6318 9.33332 22 9.33332C22.3682 9.33332 22.6667 9.03485 22.6667 8.66666C22.6667 8.29847 22.3682 7.99999 22 7.99999ZM22 7.99999C21.6318 7.99999 21.3333 7.70151 21.3333 7.33332C21.3333 6.96513 21.6318 6.66666 22 6.66666C22.3682 6.66666 22.6667 6.96513 22.6667 7.33332C22.6667 7.70151 22.3682 7.99999 22 7.99999Z" fill="#FFD033"/>
<path fill-rule="evenodd" clip-rule="evenodd" d="M20.6667 11.3333C21.0349 11.3333 21.3333 10.4379 21.3333 9.33333C21.3333 8.22876 21.0349 7.33333 20.6667 7.33333C20.2985 7.33333 20 8.22876 20 9.33333C20 10.4379 20.2985 11.3333 20.6667 11.3333Z" fill="white"/>
</g>
<path d="M16.6667 13.3333C16.6667 14.6049 18.4879 15.3333 20.6667 15.3333C22.8455 15.3333 24.6667 14.6049 24.6667 13.3333C24.6667 12.9651 24.3682 12.6667 24 12.6667C23.6318 12.6667 23.3333 12.9651 23.3333 13.3333C23.3333 13.3461 23.1717 13.4989 22.7761 13.6572C22.239 13.872 21.4824 14 20.6667 14C19.8509 14 19.0943 13.872 18.5572 13.6572C18.1616 13.4989 18 13.3461 18 13.3333C18 12.9651 17.7015 12.6667 17.3333 12.6667C16.9651 12.6667 16.6667 12.9651 16.6667 13.3333Z" fill="#FFD033"/>
<path d="M0 -0.333333H-0.901086L-0.21693 0.253086L4.33333 4.15331V5.16179L-0.193746 8.39542L-0.333333 8.49513V8.66667V9.33333V9.93475L0.176666 9.616L5.42893 6.33333H6.55984L11.0821 9.56351C11.176 9.6306 11.2886 9.66667 11.404 9.66667C11.9182 9.66667 12.1548 9.02698 11.7644 8.69237L7.66667 5.18002V4.17154L12.0542 1.03762C12.2294 0.912475 12.3333 0.710428 12.3333 0.495127V0V-0.601416L11.8233 -0.282666L6.57107 3H5.44016L0.860413 -0.271244L0.773488 -0.333333H0.666667H0Z" fill="#DB1E36" stroke="white" stroke-width="0.666667"/>
<path fill-rule="evenodd" clip-rule="evenodd" d="M0 3.33333V6H4.66667V9.33333C4.66667 9.70152 4.96514 10 5.33333 10H6.66667C7.03486 10 7.33333 9.70152 7.33333 9.33333V6H12C12.3682 6 12.6667 5.70152 12.6667 5.33333V4C12.6667 3.63181 12.3682 3.33333 12 3.33333H7.33333V0H4.66667V3.33333H0Z" fill="white"/>
<path fill-rule="evenodd" clip-rule="evenodd" d="M0 4H5.33333V3.33333V0H6.66667V3.33333V4H12V5.33333H6.66667V6V9.33333H5.33333V6V5.33333H0V4Z" fill="#DB1E36"/>
</g>
</svg>

<svg width="28" height="20" fill="none" xmlns="http://www.w3.org/2000/svg"><rect width="28" height="20" rx="2" fill="#fff"/><mask id="a" style="mask-type:alpha" maskUnits="userSpaceOnUse" x="0" y="0" width="28" height="20"><rect width="28" height="20" rx="2" fill="#fff"/></mask><g mask="url(#a)"><path fill="#07319C" d="M0 0h28v20H0z"/><path fill-rule="evenodd" clip-rule="evenodd" d="M17.333 10V6.666c0-.737.597-1.333 1.334-1.333h4c.736 0 1.333.596 1.333 1.333V10c0 3.333-3.333 4.667-3.333 4.667S17.333 13.333 17.333 10Z" fill="#008339"/><mask id="b" style="mask-type:alpha" maskUnits="userSpaceOnUse" x="17" y="5" width="7" height="10"><path fill-rule="evenodd" clip-rule="evenodd" d="M17.333 10V6.666c0-.737.597-1.333 1.334-1.333h4c.736 0 1.333.596 1.333 1.333V10c0 3.333-3.333 4.667-3.333 4.667S17.333 13.333 17.333 10Z" fill="#fff"/></mask><g mask="url(#b)" fill-rule="evenodd" clip-rule="evenodd"><path d="M19.333 8a.667.667 0 1 0 0-1.333.667.667 0 0 0 0 1.333Zm0 1.333a.667.667 0 1 0 0-1.333.667.667 0 0 0 0 1.333Zm0 1.334a.667.667 0 1 1 0-1.334.667.667 0 0 1 0 1.334Zm0 0a.667.667 0 1 1 0 1.333.667.667 0 0 1 0-1.333Zm3.334.666a.667.667 0 1 1-1.334 0 .667.667 0 0 1 1.334 0Zm-.667-2a.667.667 0 1 1 0 1.334.667.667 0 0 1 0-1.334ZM22 8a.667.667 0 1 0 0 1.333A.667.667 0 0 0 22 8Zm0 0a.667.667 0 1 1 0-1.333A.667.667 0 0 1 22 8Z" fill="#FFD033"/><path d="M20.667 11.333c.368 0 .666-.895.666-2 0-1.104-.298-2-.666-2-.369 0-.667.896-.667 2 0 1.105.299 2 .667 2Z" fill="#fff"/></g><path d="M16.667 13.333c0 1.272 1.82 2 4 2 2.178 0 4-.728 4-2a.667.667 0 0 0-1.334 0c0 .013-.161.166-.557.324-.537.215-1.294.343-2.11.343-.815 0-1.572-.128-2.109-.343-.395-.158-.557-.31-.557-.324a.667.667 0 0 0-1.333 0Z" fill="#FFD033"/><path d="M0-.333h-.901l.684.586 4.55 3.9v1.009L-.194 8.395l-.14.1v1.44l.51-.319L5.43 6.333h1.13l4.523 3.23a.554.554 0 0 0 .682-.87L7.667 5.18V4.172l4.387-3.134a.667.667 0 0 0 .28-.543V-.6l-.51.318L6.57 3H5.44L.86-.271.772-.333H0Z" fill="#DB1E36" stroke="#fff" stroke-width=".667"/><path fill-rule="evenodd" clip-rule="evenodd" d="M0 3.333V6h4.667v3.333c0 .369.298.667.666.667h1.334a.667.667 0 0 0 .666-.667V6H12a.667.667 0 0 0 .667-.667V4A.667.667 0 0 0 12 3.333H7.333V0H4.667v3.333H0Z" fill="#fff"/><path fill-rule="evenodd" clip-rule="evenodd" d="M0 4h5.333V0h1.334v4H12v1.333H6.667v4H5.333v-4H0V4Z" fill="#DB1E36"/></g></svg>
